X:1
T: The Powers of Punch
C:
R:Jig
Q:180
K:G
M:6/8
L:1/16
|:E2|D2E2F2 G2B2G2|A2E2F2 G4E2|D2G2A2 G2B2c2|d2e2c2 B2c2d2|efg2e2 d2B2d2|c2B2A2 B2G2E2|D2c2B2 A2G2A2|B2G2G2 G4:|
|:B2|d2B2d2 g2d2B2|c2A2G2 F2G2A2|d2B2d2 g2d2B2|d2e2f2 g4f2|efg2e2 d2B2d2|c2B2A2 B2G2E2|D2c2B2 A2G2A2|B2G2G2 G4:|
|:E2|D2G2B2 c2d2e2|d2g2e2 d2B2G2|c2efg2 d2B2G2|E2F2G2 A4d2|g2f2e2 a2f2d2|efg2e2 d2B2G2|E2c2B2 A2G2A2|B2G2G2 G4:|
|:c2|B2A2G2 A2F2D2|G2D2C2 B,2A,2G,2|G,2G2F2 G2D2B,2|A,2A2A2 A4a2|b2g2b2 a2f2a2|g2f2e2 d2B2G2|E2c2B2 A2G2A2|B2G2G2 G4:|
